X:1
T: Aberdeen Town Council
C:
R:Reel
I:speed 232
Q:232
K:A
M:4/4
L:1/8
|:A3B c3B|A2ab c'b ac'|b2bc' d'c' ba|ga gf ed cB|
A3B c3B|A2ab c'b ac'|bd' bf gb ge|1a4a4:|2a4a2d'2|
c'3d' e'3c'|a2c'd' e'c'ae|g3a b3g|e2bc' d'b ge|
f3g a3f|e2fg ab c'e'|bc' bf bc' bf|g2b2 b2e2|
A2cd e2fg|a2fa ea ec|de fe dc BA|G2E2 E2G2|
F3G A3F|E2FG AB ce|Bc BF GB GE|A4A4||
